X: 27336
T: Mist On The Glen
R: reel
M: 4/4
K: Dmajor
dc|:cB BA BA FB|AF BF AF FB|ABdB Adfd|efdf e~B3|
~d2 cd BAFB|AFBF AFFB|ABde faec|1 dBAG FDdc:|2 dBAG FD ag||
|:faag f2 fe|dfed BAFB|ABdB Adfd|~e2df e~B3|
a2 ga fg ef|dfed BAFB|ABde faec|1 dBAG FD ag:|2 dBAG FD D2||

